X:1
T: The Queen Mother
C:Bruce Shawyer
R:Reel
Q:232
K:G
M:4/4
L:1/8
D2|:"G"G2G2 GFED|"Em"G2G2 G2AB|"Am"A2A2 AGFE|"D7"D2D2 D2EF|
"G"G2G2 GFED|"Em7"G2B2 d3d|"Am"edcB "D7"ADEF|"G"G2G2 G2D2:|
|:"G"g2g2 gfed|"Am"e2e2 edcB|"G"d2d2 d2cB|"Am"ABcd "D7"edef|
"G"g2g2 gfed|"Am"e2e2 edcB|"AM"cBAG "D7"FDEF|1"G"G2G2 G2d2:|2"G"G2G2 G2||
